frontend/public/svg/misc/car.svg

<svg width="184" height="134" viewBox="0 0 184 134" fill="none" xmlns="http://www.w3.org/2000/svg">
<path d="M38.1492 114.579C38.1492 118.521 38.3848 121.891 38.0908 125.212C37.7114 129.498 35.6026 131.906 31.3521 132.406C26.2744 133.052 21.1521 133.279 16.0371 133.084C11.7053 132.871 9.76781 130.237 9.60503 125.867C9.47377 122.374 9.35233 118.876 9.35758 115.381C9.35758 113.384 8.75706 111.987 6.63381 111.679C1.95149 111.001 0.774006 107.685 0.645364 103.668C0.519347 99.7366 0.529171 95.8 0.492416 91.8659C0.426782 84.8726 0.42679 77.8786 0.295523 70.8866C0.164255 64.3344 2.75154 59.2846 8.22802 55.6787C9.28998 54.9797 10.2371 54.1067 11.2531 53.3014C10.9906 53.0251 10.9289 52.9142 10.837 52.8708C3.81877 49.6042 2.9747 44.0372 8.78854 38.5561C12.909 34.6713 18.0219 33.1833 23.5561 33.4268C25.661 33.5194 26.4408 32.8269 26.9822 30.9557C28.2864 26.448 29.96 22.0413 31.1552 17.5073C33.6263 8.13025 39.9265 4.28745 49.2531 3.45193C75.7291 1.07927 102.22 -0.364731 128.817 0.0802664C133.4 0.156402 136.835 1.46515 139.21 5.49113C143.754 13.1952 148.479 20.793 152.96 28.5332C153.91 30.1741 154.677 30.7497 156.686 30.6525C160.271 30.4966 163.862 30.6868 167.41 31.2203C168.989 31.4663 170.489 32.0747 171.793 32.9978C173.097 33.9208 174.17 35.1335 174.927 36.5405C177.467 40.8861 176.436 45.4732 172.277 48.3073C171.569 48.7891 170.833 49.2262 169.795 49.8878C171.861 51.2005 173.586 52.544 175.511 53.4714C180.171 55.7148 182.005 59.5753 182.448 64.4526C183.461 75.6057 183.361 86.707 181.236 97.7467C180.279 102.715 178.206 106.81 173.344 109.086C172.765 109.357 172.259 110.559 172.317 111.282C172.561 114.326 173.151 117.342 173.393 120.386C173.976 127.737 170.853 131.224 163.577 131.532C159.099 131.721 154.622 131.946 150.143 132.063C143.042 132.246 140.697 130.006 140.429 122.859C140.29 120.895 140.292 118.925 140.436 116.962C140.693 114.573 140.121 113.732 137.478 113.882C129.95 114.311 122.404 114.579 114.865 114.6C90.3746 114.666 65.8847 114.596 41.3948 114.578C40.2094 114.578 39.0254 114.579 38.1492 114.579ZM79.9579 106.366C79.9605 106.503 79.9634 106.642 79.9664 106.78C99.2989 106.452 118.642 106.408 137.959 105.671C147.302 105.315 156.633 103.904 165.895 102.489C171.081 101.696 172.065 100.318 172.431 95.051C173.042 86.2449 173.294 77.4146 173.784 68.6007C174.055 63.7254 172.557 60.4201 167.79 57.9765C162.025 55.023 156.304 51.5444 153.096 45.3669C151.185 41.6914 149.195 38.0514 147.172 34.433C142.864 26.7257 138.398 19.1036 134.227 11.3233C132.323 7.76664 129.64 6.70403 125.766 6.67449C100.31 6.57576 74.866 7.85026 49.5465 10.4924C43.4425 11.1054 39.2557 13.5431 37.8328 19.8053C37.4554 21.2863 36.9884 22.743 36.4342 24.1673C33.7018 31.7598 31.0213 39.372 28.138 46.9067C27.4894 48.3887 26.4727 49.6803 25.1845 50.659C20.9105 54.0542 16.6364 57.4849 12.0873 60.4863C7.48767 63.5193 5.76022 67.2919 6.37061 72.8288C7.43454 82.4822 8.01734 92.1908 8.57983 101.893C8.71109 104.124 9.46654 105.109 11.5452 105.218C19.0556 105.612 26.5641 106.231 34.0779 106.315C49.366 106.484 64.6626 106.366 79.9566 106.366H79.9579ZM155.288 123.459C157.242 123.307 159.196 123.06 161.152 123.031C162.757 123.008 163.581 122.493 163.537 120.769C163.476 118.484 163.512 116.196 163.552 113.91C163.579 112.432 163.098 111.729 161.445 111.934C157.341 112.442 153.208 112.736 149.121 113.344C148.431 113.447 147.464 114.639 147.381 115.41C146.533 123.24 147.237 123.942 154.962 123.488C155.07 123.484 155.179 123.474 155.286 123.459H155.288ZM14.5466 114.673C15.006 117.523 15.4314 120.745 16.1218 123.909C16.2772 124.323 16.5329 124.693 16.8661 124.984C17.1993 125.275 17.5996 125.479 18.0311 125.578C21.2995 125.681 24.5711 125.571 27.825 125.246C28.6231 125.16 29.7526 123.887 29.9128 123.01C30.251 120.855 30.3634 118.671 30.2481 116.492C30.2304 115.875 29.452 114.764 29.0011 114.752C24.2387 114.623 19.4777 114.673 14.5453 114.673H14.5466ZM157.334 35.449L156.933 36.2543C157.886 37.9418 158.795 39.6555 159.799 41.3082C162.156 45.1943 162.73 45.3073 166.697 42.8591C169.388 41.1973 169.519 38.9867 166.621 37.7954C163.696 36.5996 160.443 36.1992 157.334 35.449ZM23.7366 38.862C19.4554 39.4861 16.0161 40.7128 13.3501 43.6211C12.294 44.7729 12.2028 45.7214 14.0878 46.4657C19.0163 48.4084 20.4077 47.8565 22.3026 42.7331C22.7082 41.6337 23.1125 40.5376 23.7366 38.8593V38.862Z" fill="black"/>
<path d="M82.6422 57.5315C73.1437 57.8111 63.6459 58.199 54.1454 58.3191C49.9068 58.3736 45.6543 57.9804 41.4203 57.6358C35.9425 57.1902 32.33 51.0495 34.3745 45.7319C37.3779 37.9214 39.5996 29.8084 42.1502 21.8234C42.5638 20.3926 43.3539 19.0989 44.4379 18.0775C45.522 17.056 46.8603 16.3441 48.3132 16.0161C52.4137 14.895 56.5931 14.0856 60.8157 13.5949C73.6399 12.4214 86.4786 11.3095 99.3382 10.6532C106.955 10.2653 114.618 10.8068 122.26 10.8855C127.191 10.9361 130.968 13.1276 133.308 17.3321C137.758 25.325 142.277 33.3218 143.75 42.567C143.908 43.3014 144.199 44.0008 144.608 44.6305C147.911 50.214 146.22 54.0969 139.874 54.7874C132.064 55.6373 124.229 56.4039 116.385 56.7616C105.148 57.2742 93.8932 57.3838 82.6488 57.6654L82.6422 57.5315ZM136.003 47.1732C132.733 38.7826 129.893 31.2491 126.863 23.7931C124.521 18.0278 124.161 17.9294 118.002 18.2424C100.34 19.1416 82.6738 19.9561 65.0176 20.959C60.2336 21.2314 55.4778 22.0302 50.7147 22.636C49.6171 22.7129 48.5757 23.1506 47.7527 23.8809C46.9297 24.6112 46.3712 25.5931 46.1643 26.6738C44.5983 32.5743 42.7592 38.4045 41.2936 44.3293C39.6574 50.9426 40.2435 50.195 45.7889 50.0657C66.3172 49.5859 86.8409 48.9308 107.365 48.2857C116.632 47.9929 125.89 47.5696 136.003 47.1732Z" fill="black"/>
<path d="M88.4615 88.1458C79.618 88.4976 70.7758 88.8619 61.9317 89.1901C60.5146 89.2426 58.9204 89.5268 57.7193 88.9971C56.4119 88.4208 54.9023 87.2014 54.5032 85.9379C53.9211 84.108 55.5186 82.8282 57.2494 82.5519C60.2679 82.0712 63.3115 81.7644 66.3652 81.633C82.6267 80.9329 98.8905 80.2856 115.157 79.6909C117.778 79.6979 120.396 79.8527 123 80.1543C125.022 80.3118 126.33 81.4532 126.388 83.4714C126.447 85.512 125.065 86.7249 123.167 87.0097C120.58 87.4283 117.968 87.6662 115.348 87.7218C106.388 87.8059 97.4297 87.7541 88.4661 87.7541C88.4622 87.886 88.4615 88.0159 88.4615 88.1458Z" fill="black"/>
<path d="M65.8244 78.7215C64.5215 78.7215 63.1032 79.0425 61.9519 78.6264C60.9156 78.2516 59.5668 77.1351 59.4651 76.2228C59.3601 75.2731 60.3505 73.7097 61.2779 73.2463C62.962 72.472 64.7722 72.0084 66.6211 71.8778C78.7719 70.7207 90.9326 69.6653 103.091 68.5856C103.525 68.5363 103.964 68.547 104.396 68.6172C106.559 69.0346 108.868 69.3359 109.168 72.1877C109.392 74.3089 107.676 76.1257 104.681 76.4598C100.784 76.8969 96.8501 77.0282 92.9285 77.2179C83.8913 77.655 74.8516 78.0488 65.8125 78.4596L65.8244 78.7215Z" fill="black"/>
<path d="M149.188 85.2518C144.297 85.2019 141.057 82.8588 139.897 78.5328C138.787 74.3979 141.101 68.4252 144.688 66.4975C145.666 66.0217 146.731 65.7536 147.817 65.71C151.834 65.4409 155.355 66.932 158.449 69.304C161.369 71.5435 161.917 75.6581 160.067 79.119C158.073 82.8457 153.724 85.2984 149.188 85.2518Z" fill="black"/>
<path d="M40.0846 77.987C40.0951 83.9925 34.998 89.1047 29.0778 89.0272C27.8769 89.0191 26.6897 88.7705 25.5864 88.2961C24.4831 87.8217 23.486 87.131 22.654 86.2649C21.822 85.3988 21.1719 84.3749 20.7421 83.2534C20.3123 82.132 20.1115 80.9358 20.1516 79.7354C20.235 73.2042 24.702 68.9393 31.4932 68.9059C36.5535 68.8829 40.0754 72.6063 40.0846 77.987Z" fill="black"/>
</svg>

<svg xmlns="http://www.w3.org/2000/svg" width="184" height="134" fill="none" viewBox="0 0 184 134"><path fill="#000" d="M38.15 114.579c0 3.942.235 7.312-.06 10.633-.379 4.286-2.487 6.694-6.738 7.194-5.078.646-10.2.873-15.315.678-4.332-.213-6.27-2.847-6.432-7.217-.131-3.493-.253-6.991-.247-10.486 0-1.997-.6-3.394-2.724-3.702-4.683-.678-5.86-3.994-5.989-8.011C.52 99.737.53 95.8.492 91.866.427 84.873.427 77.879.296 70.886c-.132-6.551 2.456-11.6 7.932-15.206 1.062-.7 2.01-1.572 3.025-2.378-.262-.276-.324-.387-.416-.43-7.018-3.267-7.862-8.834-2.048-14.315 4.12-3.885 9.233-5.373 14.767-5.13 2.105.093 2.885-.6 3.426-2.47 1.304-4.508 2.978-8.915 4.173-13.449 2.471-9.377 8.771-13.22 18.098-14.055C75.73 1.079 102.22-.365 128.817.08c4.583.076 8.018 1.385 10.393 5.411 4.544 7.704 9.269 15.302 13.75 23.042.95 1.641 1.717 2.217 3.726 2.12a56 56 0 0 1 10.724.567 10.34 10.34 0 0 1 7.517 5.32c2.54 4.346 1.509 8.933-2.65 11.767-.708.482-1.444.92-2.482 1.58 2.066 1.313 3.791 2.657 5.716 3.584 4.66 2.244 6.494 6.104 6.937 10.982 1.013 11.153.913 22.254-1.212 33.294-.957 4.968-3.03 9.063-7.892 11.339-.579.271-1.085 1.473-1.027 2.196.244 3.044.834 6.06 1.076 9.104.583 7.351-2.54 10.838-9.816 11.146-4.478.189-8.955.414-13.434.531-7.101.183-9.446-2.057-9.714-9.204a41 41 0 0 1 .007-5.897c.257-2.389-.315-3.23-2.958-3.08-7.528.429-15.074.697-22.613.718-24.49.066-48.98-.004-73.47-.022zm41.808-8.213.008.414c19.333-.328 38.676-.372 57.993-1.109 9.343-.356 18.674-1.767 27.936-3.182 5.186-.793 6.17-2.171 6.536-7.438.611-8.806.863-17.636 1.353-26.45.271-4.876-1.227-8.18-5.994-10.624-5.765-2.954-11.486-6.433-14.694-12.61a410 410 0 0 0-5.924-10.934c-4.308-7.707-8.774-15.33-12.945-23.11-1.904-3.556-4.587-4.619-8.461-4.649a708 708 0 0 0-76.22 3.818c-6.103.613-10.29 3.051-11.713 9.313a38 38 0 0 1-1.399 4.362c-2.732 7.593-5.413 15.205-8.296 22.74a9.5 9.5 0 0 1-2.954 3.752c-4.274 3.395-8.548 6.826-13.097 9.827-4.6 3.033-6.327 6.806-5.716 12.343 1.064 9.653 1.646 19.362 2.209 29.064.131 2.231.887 3.216 2.965 3.325 7.51.394 15.02 1.013 22.533 1.097 15.288.169 30.585.051 45.879.051m75.33 17.093c1.954-.152 3.908-.399 5.864-.428 1.605-.023 2.429-.538 2.385-2.262-.061-2.285-.025-4.573.015-6.859.027-1.478-.454-2.181-2.107-1.976-4.104.508-8.237.802-12.324 1.41-.69.103-1.657 1.295-1.74 2.066-.848 7.83-.144 8.532 7.581 8.078q.163-.006.324-.029zm-140.741-8.786c.459 2.85.884 6.072 1.575 9.236a2.68 2.68 0 0 0 1.91 1.669c3.267.103 6.54-.007 9.793-.332.798-.086 1.928-1.359 2.088-2.236.338-2.155.45-4.339.335-6.518-.018-.617-.796-1.728-1.247-1.74-4.762-.129-9.523-.079-14.456-.079zm142.787-79.224-.401.805c.953 1.688 1.862 3.402 2.866 5.054 2.357 3.886 2.931 4 6.898 1.551 2.691-1.662 2.822-3.872-.076-5.064-2.925-1.195-6.178-1.596-9.287-2.346M23.737 38.862c-4.282.624-7.72 1.85-10.387 4.76-1.056 1.15-1.147 2.1.738 2.844 4.928 1.942 6.32 1.39 8.215-3.733.405-1.1.81-2.195 1.434-3.874z"/><path fill="#000" d="M82.642 57.532c-9.498.28-18.996.667-28.497.787-4.238.055-8.49-.339-12.725-.683-5.477-.446-9.09-6.587-7.046-11.904 3.004-7.81 5.226-15.924 7.776-23.909a8.32 8.32 0 0 1 6.163-5.807c4.1-1.121 8.28-1.93 12.503-2.421 12.824-1.174 25.663-2.286 38.522-2.942 7.617-.388 15.28.154 22.922.232 4.931.051 8.708 2.243 11.048 6.447 4.45 7.993 8.969 15.99 10.442 25.235.158.734.449 1.434.858 2.063 3.303 5.584 1.612 9.467-4.734 10.157-7.81.85-15.645 1.617-23.489 1.975-11.237.512-22.492.622-33.736.903zm53.361-10.359c-3.27-8.39-6.11-15.924-9.14-23.38-2.342-5.765-2.702-5.864-8.861-5.55-17.662.899-35.328 1.713-52.984 2.716-4.784.272-9.54 1.071-14.303 1.677a4.99 4.99 0 0 0-4.55 4.038c-1.567 5.9-3.406 11.73-4.871 17.655-1.637 6.614-1.05 5.866 4.495 5.737 20.528-.48 41.052-1.135 61.576-1.78 9.267-.293 18.525-.716 28.638-1.113M88.462 88.146c-8.844.352-17.686.716-26.53 1.044-1.417.053-3.012.337-4.213-.193-1.307-.576-2.817-1.796-3.216-3.06-.582-1.829 1.016-3.109 2.746-3.385a80 80 0 0 1 9.116-.919q24.393-1.05 48.792-1.942c2.621.007 5.239.162 7.843.463 2.022.158 3.33 1.3 3.388 3.317.059 2.041-1.323 3.254-3.221 3.539a56 56 0 0 1-7.819.712c-8.96.084-17.918.032-26.882.032q-.005.198-.004.392m-22.638-9.424c-1.302 0-2.72.32-3.872-.096-1.036-.374-2.385-1.49-2.487-2.403-.105-.95.885-2.513 1.813-2.977a15.4 15.4 0 0 1 5.343-1.368c12.15-1.157 24.312-2.213 36.47-3.292.434-.05.873-.039 1.305.031 2.163.418 4.472.719 4.772 3.57.224 2.122-1.492 3.939-4.487 4.273-3.897.437-7.83.568-11.752.758-9.038.437-18.077.83-27.117 1.242zm83.364 6.53c-4.891-.05-8.131-2.393-9.291-6.72-1.11-4.134 1.204-10.107 4.791-12.034a7.9 7.9 0 0 1 3.129-.788c4.017-.27 7.538 1.222 10.632 3.594 2.92 2.24 3.468 6.354 1.618 9.815-1.994 3.727-6.343 6.18-10.879 6.133M40.085 77.987c.01 6.006-5.087 11.118-11.007 11.04a8.99 8.99 0 0 1-8.926-9.292c.083-6.53 4.55-10.796 11.341-10.83 5.06-.022 8.582 3.701 8.592 9.082"/></svg>
